src/assets/icons-components/area.svg

<svg width="32" height="32" fill="none" xmlns="http://www.w3.org/2000/svg"><path fill-rule="evenodd" clip-rule="evenodd" d="M6.25 6.25H13v1.5H7.75V13h-1.5V6.25Zm18 1.5H19v-1.5h6.75V13h-1.5V7.75Zm-16.5 16.5V19h-1.5v6.75H13v-1.5H7.75Zm18-5.25v6.75H19v-1.5h5.25V19h1.5Z" fill="#2E2B26"/></svg>

<svg width="32" height="32" viewBox="0 0 32 32" fill="none" xmlns="http://www.w3.org/2000/svg">
<path fill-rule="evenodd" clip-rule="evenodd" d="M6.25 6.25H13V7.75H7.75V13H6.25V6.25ZM24.25 7.75H19V6.25H25.75V13H24.25V7.75ZM7.75 24.25V19H6.25V25.75H13V24.25H7.75ZM25.75 19V25.75H19V24.25H24.25V19H25.75Z" fill="#2E2B26"/>
</svg>
